X: 33
T: Falls of Divach, The
R:Strathspey
C:J. Scott Skinner
S:MacDonald - Skye Collection
N:pg.24
M:C
L:1/8
K:D
A>D F>D A<D D2|E>A,C>A, E<A, A,2|A>DF>D A<D D2|E<A, A,>C (D2D):|
g|f<a c>a f<a d>d|c<e A>e c<e A>g|f<a d>a f<a d>d|e<A A>c (d2 d>)g|
f<a c>a f<a d>d|c<e A>e c<e A>c|(3def (3efg (3fga (3gfe|(3dcB (3ABc d2 d||


